img/instagram.svg

<svg width="25" height="25" viewBox="0 0 25 25" fill="none" xmlns="http://www.w3.org/2000/svg">
<g clip-path="url(#clip0_10112_47)">
<path d="M17.1235 0.802734H8.12354C3.98204 0.802734 0.623535 4.16123 0.623535 8.30273V17.3027C0.623535 21.4442 3.98204 24.8027 8.12354 24.8027H17.1235C21.265 24.8027 24.6235 21.4442 24.6235 17.3027V8.30273C24.6235 4.16123 21.265 0.802734 17.1235 0.802734ZM22.3735 17.3027C22.3735 20.1977 20.0185 22.5527 17.1235 22.5527H8.12354C5.22854 22.5527 2.87354 20.1977 2.87354 17.3027V8.30273C2.87354 5.40773 5.22854 3.05273 8.12354 3.05273H17.1235C20.0185 3.05273 22.3735 5.40773 22.3735 8.30273V17.3027Z" fill="white"/>
<path d="M12.6235 6.80273C9.31003 6.80273 6.62354 9.48923 6.62354 12.8027C6.62354 16.1162 9.31003 18.8027 12.6235 18.8027C15.937 18.8027 18.6235 16.1162 18.6235 12.8027C18.6235 9.48923 15.937 6.80273 12.6235 6.80273ZM12.6235 16.5527C10.5565 16.5527 8.87354 14.8697 8.87354 12.8027C8.87354 10.7342 10.5565 9.05273 12.6235 9.05273C14.6905 9.05273 16.3735 10.7342 16.3735 12.8027C16.3735 14.8697 14.6905 16.5527 12.6235 16.5527Z" fill="white"/>
<path d="M19.0715 7.15271C19.513 7.15271 19.871 6.79476 19.871 6.35321C19.871 5.91166 19.513 5.55371 19.0715 5.55371C18.6299 5.55371 18.272 5.91166 18.272 6.35321C18.272 6.79476 18.6299 7.15271 19.0715 7.15271Z" fill="white"/>
</g>
<defs>
<clipPath id="clip0_10112_47">
<rect width="24" height="24" fill="white" transform="translate(0.623535 0.802734)"/>
</clipPath>
</defs>
</svg>

<svg width="25" height="25" fill="none" xmlns="http://www.w3.org/2000/svg">
  <g clip-path="url(#a)" fill="#fff">
    <path d="M17.123.803h-9a7.5 7.5 0 0 0-7.5 7.5v9a7.5 7.5 0 0 0 7.5 7.5h9a7.5 7.5 0 0 0 7.5-7.5v-9a7.5 7.5 0 0 0-7.5-7.5Zm5.25 16.5a5.256 5.256 0 0 1-5.25 5.25h-9a5.256 5.256 0 0 1-5.25-5.25v-9a5.256 5.256 0 0 1 5.25-5.25h9a5.256 5.256 0 0 1 5.25 5.25v9Z"/>
    <path d="M12.623 6.803a6 6 0 1 0 .001 12 6 6 0 0 0 0-12Zm0 9.75a3.755 3.755 0 0 1-3.75-3.75 3.754 3.754 0 0 1 3.75-3.75 3.754 3.754 0 0 1 3.75 3.75 3.755 3.755 0 0 1-3.75 3.75Zm6.449-9.4a.8.8 0 1 0 0-1.6.8.8 0 0 0 0 1.6Z"/>
  </g>
  <defs>
    <clipPath id="a">
      <path fill="#fff" transform="translate(.624 .803)" d="M0 0h24v24H0z"/>
    </clipPath>
  </defs>
</svg>
